src/actions/22/perspective.svg

<svg xmlns="http://www.w3.org/2000/svg" viewBox="0 0 22 22">
  <defs id="defs3051">
    <style type="text/css" id="current-color-scheme">
      .ColorScheme-Text {
        color:#363636;
      }
      </style>
  </defs>
 <path 
     style="fill:currentColor;fill-opacity:1;stroke:none" 
     d="M 14.15625 3 L 12.375 4 L 3.375 9 L 3 9.21875 L 3 19 L 13.802734 19 L 14 18.65625 L 19 10.0625 L 20 8.34375 L 20 6.3125 L 20 3.6875 L 20 3 L 19.3125 3 L 16.25 3 L 14.15625 3 z M 14.4375 4 L 18.3125 4 L 13.3125 9 L 5.4375 9 L 14.4375 4 z M 19 4.6875 L 19 8.03125 L 14 16.625 L 14 9.6875 L 19 4.6875 z M 4 10 L 13 10 L 13 18 L 4 18 L 4 10 z "
     class="ColorScheme-Text"
     />
 <path 
     style="fill:currentColor;fill-opacity:0.5;stroke:none" 
     d="M 15 3 L 4 9 L 14 9 L 14 17 L 20 8 L 20 3 L 15 3 z M 4 10 L 4 18 L 13 18 L 13 10 L 4 10 z "
     class="ColorScheme-Text"
     />
</svg>

<svg xmlns="http://www.w3.org/2000/svg" viewBox="0 0 22 22">
    <defs id="defs3051">
        <style id="current-color-scheme" type="text/css">
            .ColorScheme-Text{color:#050505;opacity:.7}
        </style>
    </defs>
    <path d="m14.156 3-1.781 1-9 5L3 9.219V19h10.803l.197-.344 5-8.593 1-1.72V3H14.156zm.281 1h3.876l-5 5H5.437l9-5zM19 4.688V8.03l-5 8.594V9.688l5-5zM4 10h9v8H4v-8z" class="ColorScheme-Text" style="fill:currentColor;fill-opacity:1;stroke:none"/>
    <path d="M15 3 4 9h10v8l6-9V3h-5zM4 10v8h9v-8H4z" class="ColorScheme-Text" style="fill:currentColor;fill-opacity:.5;stroke:none"/>
</svg>
